public/avatar/shoe/123.svg

<svg xmlns:xlink="http://www.w3.org/1999/xlink" height="38.3" width="36.05" xmlns="http://www.w3.org/2000/svg"><use height="21.1" transform="translate(8.35 7.15)" width="24.75" xlink:href="#a"/><defs><g id="a"><path d="M5.95-5.75q.7.25.55 2.9Q6.3-.2 5.55 1q.95.7 1.9 2.55 1 1.85.8 2.7-1.15 2.4-8.55 4.6-7.85 2.35-13.7 1.1-1.75-1.8 3.15-6.8Q-5.65.45-5.9.25q-.75-.55-1.15-2.4-.5-2.25.6-3.3 1.1-.9 5.85-1.2 5-.25 6.55.9" fill-rule="evenodd" transform="translate(15.45 7.7)"/><path d="M21.4 1.95q-1.55-1.15-6.55-.9-4.75.3-5.85 1.2-1.1 1.05-.6 3.3.4 1.85 1.15 2.4.25.2-4.95 4.9-4.9 5-3.15 6.8 5.85 1.25 13.7-1.1 7.4-2.2 8.55-4.6.2-.85-.8-2.7Q21.95 9.4 21 8.7q.75-1.2.95-3.85.15-2.65-.55-2.9Z" fill="none" stroke="#000" stroke-linecap="round" stroke-linejoin="round" stroke-width="2"/><path d="m-7.2 2.75.75-.3q2.2.4 3.6 1.9 2.1 2.4 1.2 3.3-2 .65-5.1 1.1l-5.55.4q-1-.55 1.2-3.1 2.6-2.85 3.9-3.3" fill="#494044" fill-rule="evenodd" transform="translate(15.45 7.7)"/><path d="M7.85 4.5q.15-.3.4 1.7Q7.55 8.6-.7 11q-8.7 2.5-13.35.85-.35-.05-.45-.95-.15-.85.15-1Q-9.1 11.25-.7 8.8q7.8-2.35 8.55-4.3" fill="#d80000" fill-rule="evenodd" transform="translate(15.45 7.7)"/><path d="M7.85 4.5q.15-.3.4 1.7-.85 2.95-11.3 5.4l1.8-2.7q8.2-2.25 9.1-4.4" fill="#a50404" fill-rule="evenodd" transform="translate(15.45 7.7)"/><path d="m-4.85-4 1.6-.15Q-5.1-.7-3.3 1.1l-3.85 4.2q-3.95 4.4-4.9 6.15-.25.6-.8.25l-.3-.5.1-.3q1-2 3.8-5.3 2.85-3.3 4.5-4.5-.7-1.4-.7-3 0-.95.6-2.1" fill="#d80000" fill-rule="evenodd" transform="translate(15.45 7.7)"/><path d="M5.45-6q1-.25.85.9-.7 1.55-4.9 1.8-6.95.6-8.3-1.35-.15-.3.95-1.05 1.15 1.8 7.2 1.25Q5.05-4.8 5.45-6" fill="#d80000" fill-rule="evenodd" transform="translate(15.45 7.7)"/><path d="M.15-.1Q3.5-.45 4.8-1.2l.8.05q.85.85.85 1.65v.15l-.5.9-.05.05Q4.8 2.8.55 3.05q-5.6.4-7.75-1.65l-.15-.35Q-7.6-.9-6.9-1.3l.85-.05Q-4.15.3.15-.1" fill="#351e02" fill-rule="evenodd" transform="translate(15.45 7.7)"/><path d="M.15 2.25q-4.8.3-6.6-1.3l.2-1.35Q-4.35 1.1-.1.75 3.65.45 5.1-.5L5.6.8Q4.7 1.95.15 2.25" fill="#f8c606" fill-rule="evenodd" transform="translate(15.45 7.7)"/><path d="M-.3 2.3-2.2.8Q2.9 1 5.1-.5L5.6.8Q4.65 2.1-.3 2.3" fill="#dd6b33" fill-rule="evenodd" transform="translate(15.45 7.7)"/><path d="m-6.35 2.6.65-.05.25.3q-4.45 5.7-6.4 6.3l5.5-6.55" fill="#d85b5b" fill-rule="evenodd" transform="translate(15.45 7.7)"/><path d="M4.8-6.4q1.25.4 1.45 1.05.1.35-.3.45-.4.15-.6-.3l-1.4-.45-5.75-.15q-3.4.3-4.3 1.2l-.65-.05q-.4-.25 0-.6 1.2-1.15 5.3-1.45l6.25.3" fill="#d80000" fill-rule="evenodd" transform="translate(15.45 7.7)"/></g></defs></svg>

<?xml version="1.0" encoding="UTF-8" standalone="no"?>
<svg xmlns:xlink="http://www.w3.org/1999/xlink" height="38.3px" width="36.05px" xmlns="http://www.w3.org/2000/svg">
  <g transform="matrix(1.0, 0.0, 0.0, 1.0, 23.8, 14.85)">
    <use height="21.1" transform="matrix(1.0, 0.0, 0.0, 1.0, -15.45, -7.7)" width="24.75" xlink:href="#shape0"/>
  </g>
  <defs>
    <g id="shape0" transform="matrix(1.0, 0.0, 0.0, 1.0, 15.45, 7.7)">
      <path d="M5.95 -5.75 Q6.65 -5.5 6.5 -2.85 6.3 -0.2 5.55 1.0 6.5 1.7 7.45 3.55 8.45 5.4 8.25 6.25 7.1 8.65 -0.3 10.85 -8.15 13.2 -14.0 11.95 -15.75 10.15 -10.85 5.15 -5.65 0.45 -5.9 0.25 -6.65 -0.3 -7.05 -2.15 -7.55 -4.4 -6.45 -5.45 -5.35 -6.35 -0.6 -6.65 4.4 -6.9 5.95 -5.75" fill="#000000" fill-rule="evenodd" stroke="none"/>
      <path d="M5.95 -5.75 Q4.4 -6.9 -0.6 -6.65 -5.35 -6.35 -6.45 -5.45 -7.55 -4.4 -7.05 -2.15 -6.65 -0.3 -5.9 0.25 -5.65 0.45 -10.85 5.15 -15.75 10.15 -14.0 11.95 -8.15 13.2 -0.3 10.85 7.1 8.65 8.25 6.25 8.45 5.4 7.45 3.55 6.5 1.7 5.55 1.0 6.3 -0.2 6.5 -2.85 6.65 -5.5 5.95 -5.75 Z" fill="none" stroke="#000000" stroke-linecap="round" stroke-linejoin="round" stroke-width="2.0"/>
      <path d="M-7.2 2.75 L-6.45 2.45 Q-4.25 2.85 -2.85 4.35 -0.75 6.75 -1.65 7.65 -3.65 8.3 -6.75 8.75 L-12.3 9.15 Q-13.3 8.6 -11.1 6.05 -8.5 3.2 -7.2 2.75" fill="#494044" fill-rule="evenodd" stroke="none"/>
      <path d="M7.85 4.5 Q8.0 4.2 8.25 6.2 7.55 8.6 -0.7 11.0 -9.4 13.5 -14.05 11.85 -14.4 11.8 -14.5 10.9 -14.65 10.05 -14.35 9.9 -9.1 11.25 -0.7 8.8 7.1 6.45 7.85 4.5" fill="#d80000" fill-rule="evenodd" stroke="none"/>
      <path d="M7.85 4.5 Q8.0 4.2 8.25 6.2 7.4 9.15 -3.05 11.6 L-1.25 8.9 Q6.95 6.65 7.85 4.5" fill="#a50404" fill-rule="evenodd" stroke="none"/>
      <path d="M-4.85 -4.0 L-3.25 -4.15 Q-5.1 -0.7 -3.3 1.1 L-7.15 5.3 Q-11.1 9.7 -12.05 11.45 -12.3 12.05 -12.85 11.7 L-13.15 11.2 -13.05 10.9 Q-12.05 8.9 -9.25 5.6 -6.4 2.3 -4.75 1.1 -5.45 -0.3 -5.45 -1.9 -5.45 -2.85 -4.85 -4.0" fill="#d80000" fill-rule="evenodd" stroke="none"/>
      <path d="M5.45 -6.0 Q6.45 -6.25 6.3 -5.1 5.6 -3.55 1.4 -3.3 -5.55 -2.7 -6.9 -4.65 -7.05 -4.95 -5.95 -5.7 -4.8 -3.9 1.25 -4.45 5.05 -4.8 5.45 -6.0" fill="#d80000" fill-rule="evenodd" stroke="none"/>
      <path d="M0.15 -0.1 Q3.5 -0.45 4.8 -1.2 L5.6 -1.15 Q6.45 -0.3 6.45 0.5 L6.45 0.65 5.95 1.55 5.9 1.6 Q4.8 2.8 0.55 3.05 -5.05 3.45 -7.2 1.4 L-7.35 1.05 Q-7.6 -0.9 -6.9 -1.3 L-6.05 -1.35 Q-4.15 0.3 0.15 -0.1" fill="#351e02" fill-rule="evenodd" stroke="none"/>
      <path d="M0.15 2.25 Q-4.65 2.55 -6.45 0.95 L-6.25 -0.4 Q-4.35 1.1 -0.1 0.75 3.65 0.45 5.1 -0.5 L5.6 0.8 Q4.7 1.95 0.15 2.25" fill="#f8c606" fill-rule="evenodd" stroke="none"/>
      <path d="M-0.3 2.3 L-2.2 0.8 Q2.9 1.0 5.1 -0.5 L5.6 0.8 Q4.65 2.1 -0.3 2.3" fill="#dd6b33" fill-rule="evenodd" stroke="none"/>
      <path d="M-6.35 2.6 L-5.7 2.55 -5.45 2.85 Q-9.9 8.55 -11.85 9.15 L-6.35 2.6" fill="#d85b5b" fill-rule="evenodd" stroke="none"/>
      <path d="M4.8 -6.4 Q6.05 -6.0 6.25 -5.35 6.35 -5.0 5.95 -4.9 5.55 -4.75 5.35 -5.2 L3.95 -5.65 -1.8 -5.8 Q-5.2 -5.5 -6.1 -4.6 L-6.75 -4.65 Q-7.15 -4.9 -6.75 -5.25 -5.55 -6.4 -1.45 -6.7 L4.8 -6.4" fill="#d80000" fill-rule="evenodd" stroke="none"/>
    </g>
  </defs>
</svg>
